app/dist/common/images/evergreen.svg

<svg height="18" viewBox="0 0 18 18" width="18" xmlns="http://www.w3.org/2000/svg" xmlns:xlink="http://www.w3.org/1999/xlink"><linearGradient id="a" gradientUnits="userSpaceOnUse" x1="4" x2="10.2" y1="7.91" y2="7.91"><stop offset="0" stop-color="#68bc4c"/><stop offset=".53" stop-color="#41818d"/><stop offset="1" stop-color="#2e65ac"/></linearGradient><linearGradient id="b" gradientUnits="userSpaceOnUse" x1="6.77" x2="8.65" y1="11.96" y2="11.58"><stop offset="0" stop-color="#4bb2a3"/><stop offset="1" stop-color="#afd52e"/></linearGradient><linearGradient id="c" gradientUnits="userSpaceOnUse" x1="8.63" x2="10.16" y1="7.03" y2="6.68"><stop offset="0" stop-color="#51b49d"/><stop offset="1" stop-color="#b4d629"/></linearGradient><linearGradient id="d" gradientUnits="userSpaceOnUse" x1="8.21" x2="14.02" y1="9.6" y2="10.31"><stop offset="0" stop-color="#4ab2a5"/><stop offset="1" stop-color="#b7d726"/></linearGradient><path d="m0 0h18v18h-18z" fill="#f0f3fa"/><path d="m10 4h-6v3h3.6c1-1.96 2.16-1.7 2.4-1.7z" fill="url(#a)"/><path d="m7.4 8h-3.4v4h1.84c.2-1.93 2.2-2.36 3.18-2.25l.12-.35c-1.47.4-1.77-.77-1.74-1.4z" fill="url(#a)"/><path d="m6.77 11.86c.18-1.07 1.36-1.22 1.92-1.15-.18.65-.69 1.94-1.26 1.92-.57-.03-.68-.53-.66-.77z" fill="url(#b)"/><path d="m9.74 6.15c-.5-.02-.98.58-1.16.88h.92c.78-.1.84-.86.24-.88z" fill="url(#c)"/><g fill="url(#d)"><path d="m14 10v-4h-3.03c.14 1.48-1 2-1.6 2h-1.03c-.02.85.77.57 1.17.32.13-.1.45-.28.68-.1.24.17.22.43.18.54l-.37 1.24z"/><path d="m14 14v-3h-4.32l-.62 1.32c-.35.88-.72 1.04-1.06 1.11v.57z"/></g></svg>

<!-- by TradingView --><svg width="18" height="18" viewBox="0 0 18 18" xmlns="http://www.w3.org/2000/svg"><path fill="#F0F3FA" d="M0 0h18v18H0z"/><path d="M10 4H4v3h3.6c1-1.96 2.16-1.7 2.4-1.7V4Z" fill="url(#aiog2see4)"/><path d="M7.4 8H4v4h1.84c.2-1.93 2.2-2.36 3.18-2.25l.12-.35C7.67 9.8 7.37 8.63 7.4 8Z" fill="url(#biog2see4)"/><path d="M6.77 11.86c.18-1.07 1.36-1.22 1.92-1.15-.18.65-.69 1.94-1.26 1.92-.57-.03-.68-.53-.66-.77Z" fill="url(#ciog2see4)"/><path d="M9.74 6.15c-.5-.02-.98.58-1.16.88h.92c.78-.1.84-.86.24-.88Z" fill="url(#diog2see4)"/><path d="M14 10V6h-3.03c.14 1.48-1 2-1.6 2H8.34c-.02.85.77.57 1.17.32.13-.1.45-.28.68-.1.24.17.22.43.18.54L10 10h4Z" fill="url(#eiog2see4)"/><path d="M14 14v-3H9.68l-.62 1.32c-.35.88-.72 1.04-1.06 1.11V14h6Z" fill="url(#fiog2see4)"/><defs><linearGradient id="aiog2see4" x1="4" y1="7.91" x2="10.2" y2="7.91" gradientUnits="userSpaceOnUse"><stop stop-color="#68BC4C"/><stop offset=".53" stop-color="#41818D"/><stop offset="1" stop-color="#2E65AC"/></linearGradient><linearGradient id="biog2see4" x1="4" y1="7.91" x2="10.2" y2="7.91" gradientUnits="userSpaceOnUse"><stop stop-color="#68BC4C"/><stop offset=".53" stop-color="#41818D"/><stop offset="1" stop-color="#2E65AC"/></linearGradient><linearGradient id="ciog2see4" x1="6.77" y1="11.96" x2="8.65" y2="11.58" gradientUnits="userSpaceOnUse"><stop stop-color="#4BB2A3"/><stop offset="1" stop-color="#AFD52E"/></linearGradient><linearGradient id="diog2see4" x1="8.63" y1="7.03" x2="10.16" y2="6.68" gradientUnits="userSpaceOnUse"><stop stop-color="#51B49D"/><stop offset="1" stop-color="#B4D629"/></linearGradient><linearGradient id="eiog2see4" x1="8.21" y1="9.6" x2="14.02" y2="10.31" gradientUnits="userSpaceOnUse"><stop stop-color="#4AB2A5"/><stop offset="1" stop-color="#B7D726"/></linearGradient><linearGradient id="fiog2see4" x1="8.21" y1="9.6" x2="14.02" y2="10.31" gradientUnits="userSpaceOnUse"><stop stop-color="#4AB2A5"/><stop offset="1" stop-color="#B7D726"/></linearGradient></defs></svg>
